X:1
T:Title
%%score { 1 | 2 }
L:1/8
M:4/4
K:Ab
V:1 treble nm="Grand Piano"
V:2 bass 
V:1
 z4 z2 z[Q:1/4=88] [CE] | [CA][CA][CA][DB] [Ec][CE][_C=D][=CE] | F6- FF | EFGA B=AB_c | %4
 [Ec]6- [Ec][CE] | [CA][CA][CA][DB] [Ec][CE][_C=D][=CE] | F6- FF | EFGA BdcB | %8
[M:7/8] [CA]-[CA]-[CA]- [CA]- [CA]3 |[M:1/8] [CE] |[M:4/4] [Ec][=D_c][E=c][Fd] c B2 E | %11
 B=ABc [C_A]3 c | eecA F[Fd][Fc][FB] |[M:7/8] [EA]2 [DG]2 [CA]3 |] %14
V:2
 z4 z2 z [A,,A,] | [A,,A,][A,,A,][A,,A,][A,,A,] [A,,A,][A,,A,][A,,A,][A,,A,] | %2
 [D,A,D]6- [D,A,D][D,A,D] | [E,G,D][E,A,D][E,B,D][E,A,C] [E,G,D][E,_G,C][E,=G,D][E,G,=D] | %4
 [A,,A,]6- [A,,A,][A,,A,] | [A,,A,][A,,A,][A,,A,][A,,A,] [A,,A,][A,,A,][A,,A,][A,,A,] | %6
 [D,A,D]6- [D,A,D][D,A,D] | [E,G,D][E,A,D][E,B,D][E,A,C] [E,G,D][E,G,F][A,E][E,G,D] | %8
[M:7/8] [A,,A,]-[A,,A,]-[A,,A,]- [A,,A,]- [A,,A,]3 |[M:1/8] [A,,A,] | %10
[M:4/4] [A,,A,][A,,A,][A,,A,][A,,A,] [E,A,E] [E,G,D]2 [E,G,D] | %11
 [E,G,D][E,_G,C][E,=G,D][E,G,E] [A,,A,]3[K:treble] [A,E] | %12
 [A,CA][A,CA][A,CE][A,CE][K:bass] [D,A,D][B,,B,][C,=A,][D,B,] |[M:7/8] [E,C]2 [E,B,]2 [A,,A,]3 |] %14

